src/img/advantages__speed.svg

<svg width="48" height="48" fill="none" xmlns="http://www.w3.org/2000/svg">
  <g clip-path="url(#clip0)" fill="#fff">
    <path d="M15.2506 18.7129C15.1227 18.4617 14.8723 18.2969 14.5915 18.2785L7.86161 17.8298C7.51287 17.7954 7.19046 18.0114 7.06325 18.3361L2.21164 30.7352C2.08123 31.068 2.18764 31.4464 2.47245 31.6631 2.61485 31.7718 2.78604 31.8263 2.95638 31.8263 3.12513 31.8263 3.29397 31.7735 3.43638 31.6664L7.46327 28.6466 9.80794 29.1154C10.1903 29.1914 10.5726 28.9818 10.7119 28.6163 11.971 25.3181 13.4868 22.2512 15.2155 19.5018 15.3651 19.2632 15.3787 18.9632 15.2506 18.7129zM9.46228 27.4146L7.42568 27.0074C7.20331 26.9635 6.97128 27.0162 6.78894 27.1522L4.72589 28.6992 8.33917 19.4647 13.1692 19.7863C11.7773 22.1422 10.5342 24.7004 9.46228 27.4146zM30.1707 40.1392L29.7219 33.4085C29.7027 33.1269 29.5379 32.8766 29.2867 32.7485 29.0363 32.6206 28.7363 32.6333 28.498 32.7837 25.7478 34.5123 22.6817 36.0282 19.3836 37.2873 19.0188 37.4257 18.8076 37.8081 18.8844 38.1912L19.3532 40.5359 16.3334 44.5619C16.119 44.8483 16.1199 45.2419 16.3366 45.5267 16.491 45.7299 16.7286 45.8426 16.9734 45.8426 17.071 45.8426 17.1694 45.8243 17.2653 45.789L29.6644 40.9374C29.9891 40.8104 30.1939 40.4871 30.1707 40.1392zM19.3003 43.2726L20.8474 41.2096C20.9834 41.028 21.0362 40.796 20.9914 40.5728L20.5842 38.537C23.2992 37.465 25.8566 36.2219 28.2124 34.83L28.5348 39.6592 19.3003 43.2726zM23.1983 24.0004H17.8083C17.518 24.0004 17.2508 24.158 17.1091 24.4116L10.344 36.5675C10.168 36.8843 10.2272 37.281 10.488 37.5323 10.6408 37.6795 10.8415 37.7562 11.0432 37.7562 11.1856 37.7562 11.3287 37.7186 11.4567 37.6403L23.6126 30.2841C23.8518 30.1393 23.9982 29.8801 23.9982 29.6002V24.8004C23.9983 24.3588 23.6399 24.0004 23.1983 24.0004zM22.3985 29.1497L13.2079 34.7116 18.278 25.6011V25.6003H22.3985V29.1497z"/>
    <path d="M47.9594.770967C47.9266.38144 47.6179.0726303 47.2283.0398181 46.9627.0190058 20.6199-1.82007 9.21762 28.0449 9.10484 28.3401 9.17599 28.6728 9.39921 28.8961L13.2029 32.6997C13.3813 32.8781 13.6309 32.9597 13.8813 32.9261 14.1301 32.8901 14.3477 32.7398 14.4693 32.5197L18.2802 25.6003H22.3983V29.1592L15.4372 33.5541C15.2316 33.6845 15.0964 33.9005 15.0692 34.1421 15.0421 34.3837 15.1268 34.6244 15.2988 34.7964L19.1025 38.6001C19.2553 38.7529 19.4593 38.8345 19.6681 38.8345 19.7641 38.8345 19.8609 38.8177 19.9537 38.7817 49.8201 27.3785 47.9818 1.03581 47.9594.770967zM43.7629 14.9635C40.9559 21.9086 34.5324 31.3503 19.8655 37.1011L17.1377 34.3733 23.6253 30.2775C23.8572 30.1304 23.998 29.8752 23.998 29.6008V24.8011C23.998 24.3595 23.6396 24.0011 23.198 24.0011H17.8064C17.5145 24.0011 17.2465 24.1603 17.1057 24.4155L13.5803 30.8166 10.8982 28.1336C20.9078 2.59804 42.2438 1.5533 46.3915 1.61171 46.4211 3.47722 46.2499 8.80958 43.7629 14.9635zM13.7029 35.3316C13.5293 35.1012 13.2526 34.9892 12.9813 35.018 13.0094 34.746 12.8973 34.47 12.6678 34.2964 11.4615 33.3845 9.90478 33.0813 8.39533 33.4636 6.79306 33.8708 5.48273 34.9635 4.80118 36.4634L.0720038 46.8682C-.0663698 47.1722-.00158922 47.5298.234377 47.7649.387188 47.9185.591936 47.9993.799965 47.9993.911996 47.9993 1.02478 47.9753 1.13118 47.9273L11.536 43.1973C13.0351 42.5166 14.1278 41.2063 14.535 39.604 14.9181 38.0961 14.6149 36.5387 13.7029 35.3316zM12.9846 39.2104C12.6982 40.3392 11.9287 41.2615 10.8744 41.7415L2.41104 45.5884 6.25794 37.1242C6.73709 36.0699 7.66024 35.3004 8.78898 35.014 9.08579 34.9389 9.3841 34.902 9.67847 34.902 10.1768 34.902 10.664 35.0084 11.108 35.2156L10.3464 36.5635C10.1696 36.8763 10.2232 37.2691 10.4776 37.5227 10.7319 37.7779 11.1247 37.8306 11.4367 37.6538L12.7847 36.8915C13.1126 37.597 13.187 38.4121 12.9846 39.2104z"/>
    <path d="M47.9597.771838C47.9268.38231 47.618.0735009 47.2285.0406887 46.9165.0158452 39.501-.545712 30.7801 3.47162 30.5426 3.58037 30.3737 3.79956 30.3273 4.05718 30.2809 4.3148 30.3642 4.57871 30.5489 4.76349L43.236 17.4506C43.3872 17.6018 43.5912 17.6849 43.8016 17.6849 43.8488 17.6849 43.896 17.6809 43.9432 17.6729 44.2008 17.6265 44.4191 17.4578 44.5287 17.2201 48.5468 8.4992 47.9853 1.08299 47.9597.771838zM43.5424 15.4931L32.5064 4.45711C38.8907 1.76211 44.4815 1.57649 46.3925 1.60855 46.4245 3.52122 46.2445 9.09441 43.5424 15.4931zM35.3285 12.6709C32.6382 9.9807 28.2618 9.9807 25.5716 12.6709 22.8814 15.3611 22.8814 19.7375 25.5716 22.4278 26.9164 23.7732 28.6834 24.4452 30.4497 24.4452 32.2167 24.4452 33.983 23.7725 35.3285 22.4278 38.0187 19.7375 38.0187 15.3611 35.3285 12.6709zM34.1974 21.2966C32.1312 23.3628 28.769 23.3628 26.7028 21.2966 24.6366 19.2304 24.6366 15.8682 26.7028 13.802 27.7355 12.7693 29.093 12.2525 30.4498 12.2525 31.8065 12.2525 33.164 12.7693 34.1975 13.802 36.2636 15.8682 36.2636 19.2304 34.1974 21.2966z"/>
    <path d="M32.0401 19.14C31.1633 20.0184 29.7363 20.0175 28.8587 19.14C27.9819 18.2625 27.9819 16.8362 28.8587 15.9587C29.7354 15.0819 31.1625 15.0812 32.0401 15.9587C32.3521 16.2714 32.8592 16.2714 33.1711 15.9587C33.4839 15.6459 33.4839 15.1403 33.1711 14.8276C31.6713 13.3269 29.2282 13.3269 27.7276 14.8276C26.2269 16.3282 26.2269 18.7705 27.7276 20.2711C28.478 21.0215 29.4643 21.3967 30.4498 21.3967C31.4361 21.3967 32.4216 21.0215 33.1711 20.2711C33.4839 19.9584 33.4839 19.4528 33.1711 19.14C32.8592 18.8273 32.3521 18.8273 32.0401 19.14Z"/>
  </g>
  <defs>
    <clipPath id="clip0">
      <path fill="#fff" d="M0 0H48V48H0z"/>
    </clipPath>
  </defs>
</svg>

<svg width="48" height="48" fill="none" xmlns="http://www.w3.org/2000/svg"><g clip-path="url(#clip0)" fill="#fff"><path d="M15.25 18.713a.798.798 0 00-.659-.434l-6.73-.45a.785.785 0 00-.798.507l-4.851 12.4a.8.8 0 001.224.93l4.027-3.02 2.345.47a.8.8 0 00.904-.5c1.259-3.298 2.775-6.365 4.504-9.114a.8.8 0 00.035-.79zm-5.788 8.702l-2.036-.408a.806.806 0 00-.637.145L4.726 28.7l3.613-9.234 4.83.321a54.024 54.024 0 00-3.707 7.629zm20.709 12.724l-.45-6.73a.801.801 0 00-1.223-.625c-2.75 1.728-5.816 3.244-9.114 4.503a.799.799 0 00-.5.904l.47 2.345-3.02 4.026a.8.8 0 00.931 1.227l12.4-4.852a.8.8 0 00.506-.798zM19.3 43.273l1.546-2.063a.8.8 0 00.144-.637l-.407-2.036a53.984 53.984 0 007.628-3.707l.323 4.83-9.235 3.613zM23.197 24h-5.39a.801.801 0 00-.699.412l-6.765 12.156a.801.801 0 001.113 1.072l12.156-7.356a.8.8 0 00.385-.684v-4.8a.8.8 0 00-.8-.8zm-.8 5.15l-9.19 5.562 5.07-9.11V25.6h4.12v3.55z"/><path d="M47.96.771a.8.8 0 00-.732-.731C46.963.019 20.62-1.82 9.218 28.045a.8.8 0 00.181.851l3.804 3.804c.178.178.428.26.678.226a.803.803 0 00.588-.406l3.811-6.92h4.118v3.56l-6.96 4.394a.802.802 0 00-.14 1.242l3.804 3.804a.799.799 0 00.852.182C49.82 27.379 47.982 1.036 47.959.77zm-4.197 14.192c-2.807 6.946-9.23 16.387-23.897 22.138l-2.728-2.728 6.487-4.095a.802.802 0 00.373-.677v-4.8a.8.8 0 00-.8-.8h-5.392a.8.8 0 00-.7.415l-3.526 6.4-2.682-2.682C20.908 2.598 42.244 1.554 46.392 1.612c.03 1.865-.142 7.198-2.63 13.351zm-30.06 20.369a.798.798 0 00-.722-.314.8.8 0 00-.313-.722c-1.207-.911-2.763-1.215-4.273-.832a5.38 5.38 0 00-3.594 3L.072 46.867a.799.799 0 001.06 1.06l10.404-4.73a5.378 5.378 0 002.999-3.594c.383-1.508.08-3.065-.832-4.272zm-.718 3.878a3.79 3.79 0 01-2.11 2.532L2.41 45.588l3.847-8.464a3.787 3.787 0 013.42-2.222c.499 0 .986.106 1.43.314l-.762 1.347a.8.8 0 001.09 1.09l1.349-.761c.328.705.402 1.52.2 2.318z"/><path d="M47.96.772a.801.801 0 00-.732-.731c-.312-.025-7.727-.587-16.448 3.43a.8.8 0 00-.231 1.292l12.687 12.688a.8.8 0 001.293-.23c4.018-8.722 3.456-16.138 3.43-16.45zm-4.418 14.721L32.506 4.457c6.385-2.695 11.975-2.88 13.886-2.848.032 1.912-.148 7.485-2.85 13.884zm-8.214-2.822a6.907 6.907 0 00-9.756 0 6.907 6.907 0 000 9.757 6.876 6.876 0 004.878 2.017 6.88 6.88 0 004.878-2.017 6.907 6.907 0 000-9.757zm-1.13 8.626a5.306 5.306 0 01-7.495 0 5.306 5.306 0 010-7.495 5.284 5.284 0 013.747-1.55c1.357 0 2.714.517 3.747 1.55a5.306 5.306 0 010 7.495z"/><path d="M32.04 19.14a2.25 2.25 0 01-3.181-3.181 2.252 2.252 0 013.181 0 .799.799 0 101.131-1.131 3.854 3.854 0 00-5.443 0 3.854 3.854 0 000 5.443 3.838 3.838 0 002.722 1.126 3.83 3.83 0 002.721-1.126.799.799 0 10-1.13-1.131z"/></g><defs><clipPath id="clip0"><path fill="#fff" d="M0 0h48v48H0z"/></clipPath></defs></svg>
